!!!!SEGMENT: pl-sa--549-a-ix-29--013_anonim--marsz.krn
!!!cenid: 18xx:469
!!!COM: Anonim
!!!COM-rismID: pe30004985
!!!CDT:
!!!CNT:
!!!OTL: Marsz
!!!PDT:
!!!AGN: Secular; March
!!!SMS-siglum: PL-SA
!!!SMS-shelfmark: 549/A IX 29
!!!SMS-shelfwork: 013 W
!!!SMS-variant:
!!!SMS-altvar:
!!!NIFC-rismSourceID: 1001068406
!!!NIFC-islandoraID:
!!!URL-pdf-islandora:
!!!URL-scan: https://bc.bdsandomierz.pl/dlibra/publication/1441/edition/1409/content @EN{Scan in the Sandomierz Diocese Digital Library} @PL{Skany w portalu Cyfrowa Biblioteka Diecezjalna w Sandomierzu}
!!!ONB-nifc: Str. 11 (s. 4) – str. 12 (s. 1)
!!!AIN: 2 piano
!!!key: C
**kern	**kern	**dynam
*group1	*group1	*
*part2	*part1	*part1
*staff2	*staff1	*
*I"[Piano]	*I"[Piano]	*
*Ipiano	*Ipiano	*
*ICklav	*ICklav	*
*clefF4	*clefG2	*
*k[]	*k[]	*
*C:	*C:	*
*M2/4	*M2/4	*
*>[A,A,B,B,C,C,D]	*>[A,A,B,B,C,C,D]	*
=1	=1	=1
*>A	*>A	*
2r	8g\L	.
*	*Xtuplet	*
.	24g\L	.
.	24g\	.
.	24g\JJ	.
.	8g\L	.
.	16cc\L	.
.	16ee\JJ	.
=2	=2	=2
2r	8g\L	.
.	24g\L	.
.	24g\	.
.	24g\JJ	.
.	8g\L	.
.	16cc\L	.
.	16ee\JJ	.
=3	=3	=3
2r	8g\L	.
.	16cc\L	.
.	16ee\JJ	.
.	8gg\L	.
.	16ee\L	.
.	16cc\JJ	.
=4	=4	=4
2ryy	8g\L	.
.	24g\L	.
.	24g\	.
.	24g\JJ	.
!	!	!LO:DY:t=p&colon;
.	4g/	p
=5	=5	=5
8B\L 8d\	8.b\L	.
8G\J	.	.
.	16dd\K	.
8B\L 8d\	8.ff\	.
8G\J	.	.
.	16aa\Jk	.
=6	=6	=6
8c\L 8e\	8ff\L 8aa\	.
8G\J	8ee\J 8gg\	.
*rep	*	*
8c\L 8e\	8r	.
8G\J	8cc\ 8ee\	.
*Xrep	*	*
=7	=7	=7
8B\L 8d\	8.gg\L	.
8G\J	.	.
.	16ff\K	.
*rep	*	*
8B\L 8d\	8.dd\	.
8G\J	.	.
.	16b\Jk	.
*Xrep	*	*
=8	=8	=8
8c\L 8e\	8aa\L	.
8G\J	8gg\	.
*rep	*	*
8c\L 8e\	8ee\	.
8G\J	8cc\J	.
*Xrep	*	*
=9	=9	=9
8B\L 8d\	8b\L	.
8G\J	8dd\	.
*rep	*	*
8B\L 8d\	8ff\	.
8G\J	8aa\J	.
*Xrep	*	*
=10	=10	=10
8c\L 8e\	16ff#X\LL	.
.	16gg\	.
8G\J	16ccc\	.
.	16bb\JJ	.
*rep	*	*
8c\L 8e\	16aa\LL	.
.	16gg\	.
8G\J	16ffn\	.
.	16ee\JJ	.
*Xrep	*	*
!!LO:LB:g=original
=11	=11	=11
8B\L 8d\	8.gg\L	.
8G\J	.	.
.	16ff\Jk	.
*rep	*	*
8B\L 8d\	8.dd\L	.
8G\J	.	.
.	16b\Jk	.
*Xrep	*	*
=12	=12	=12
8c\L 8e\	8cc\L	.
8c\J 8e\	8ee\J	.
4c\ 4e\	4cc\	.
=13:|!|:	=13:|!|:	=13:|!|:
*>B	*>B	*
2r	8g\L	.
*	*tuplet	*
!	!LO:TUP:a:problem=klamra łukowa	!
.	24g\L	.
.	24g\	.
.	24g\JJ	.
.	8g\L	.
.	8g\J	.
=14	=14	=14
!LO:SIC:n=3:v:s:t=4D	!	!
4GG:/ 4BB:/ 4E:/ 4G:/	8dd\L 8ff\	.
.	8b\	.
!LO:SIC:n=3:v:s:t=4D	!	!
4GG:/ 4BB:/ 4E:/ 4G:/	8b\ 8dd\	.
.	8g\J	.
=15	=15	=15
2r	8g\L	.
!	!LO:TUP:a:problem=klamra łukowa	!
.	24g\L	.
.	24g\	.
.	24g\JJ	.
.	8g\L	.
.	8g\J	.
=16	=16	=16
4AAA:/ 4EE:/ 4GG:/ 4C:/	8ee\L 8gg\	.
.	8g\	.
4AAA:/ 4EE:/ 4GG:/ 4C:/	8cc\ 8ee\	.
.	8g\J	.
=17	=17	=17
8FF/L 8F/	8ff\L 8aa\	.
8FF/J 8F/	16ff\L 16aa\	.
.	16ccc\JJ	.
4CC/ 4C/	8ee\L 8gg\	.
.	8ccc\J	.
=18	=18	=18
8FF/L 8F/	8ff\L 8aa\	.
8FF/J 8F/	16ff\L 16aa\	.
.	16ccc\JJ	.
!LO:TX:t=P:problem=skreślone ósemki	!	!
4CC/ 4C/	8ee\L 8gg\	.
.	8ccc\J	.
=19	=19	=19
!LO:TX:a:t=P:problem=niejednoznaczny zapis [dźwięk 4C]	!	!
!LO:SIC:n=2:v:s:t=4FF	!	!
8EE/L 8F/	8ff\L 8aa\	.
!LO:SIC:n=2:v:s:t=4FF	!	!
8CC/J 8F/	8ddd\J	.
8GG/L 8G/	16ccc\LL	.
.	16bb\	.
8GG/J 8G/	16aa\	.
.	16bb\JJ	.
=20	=20	=20
8CC/L 8C/	8cc:\L 8ee:\ 8ccc:\	.
8CC/J 8C/	8cc:\J 8ee:\ 8ccc:\	.
4CC/ 4C/	4cc\ 4ee\ 4ccc\	.
!!LO:LB:g=original
=21:|!	=21:|!	=21:|!
*>C	*>C	*
*k[b-]	*k[b-]	*
*M2/4	*M2/4	*
!	!LO:TX:a:t=P::global:problem=niejednoznaczny zapis&colon;łuk frazowy, ozdobnik (obiegnik)?	!
!!mixed beam:problem
!LO:TX:t=P:problem=mixed beam	!LO:TX:a:t=Trio	!
8FF/L	8a\ 8cc\$>	.
8F\ 8A\ 8c\	4ff\ 4aa\	.
8F\ 8A\ 8c\	.	.
8F\J 8A\ 8c\	8cc\ 8ff\	.
=22	=22	=22
*rep	*	*
8FF/L	8a\ 8cc\$>	.
8F\ 8A\ 8c\	4aa\ 4ccc\	.
8F\ 8A\ 8c\	.	.
8F\J 8A\ 8c\	8ff\ 8aa\	.
*Xrep	*	*
=23	=23	=23
8C\L	(>16bb-\LL	.
.	16aa\	.
8G\ 8B-\ 8c\	16gg\	.
.	16ff\JJ)	.
8G\ 8B-\ 8c\	16ee\LL$>	.
.	16dd\	.
8G\J 8B-\ 8c\	16cc\	.
.	16b-\JJ	.
=24	=24	=24
!!mixed beam:problem
!LO:TX:t=P:problem=mixed beam	!	!
8FF/L	16a\LL$>	.
.	16cc\J	.
8F\ 8A\ 8c\	8cc\J	.
8F\ 8A\ 8c\	8cc\L 8ff\	.
8F\J 8A\ 8c\	8a\J 8cc\	.
=25	=25	=25
*rep	*	*
8FF/L	8a\ 8cc\$>	.
8F\ 8A\ 8c\	4ff\ 4aa\	.
8F\ 8A\ 8c\	.	.
8F\J 8A\ 8c\	8cc\ 8ff\	.
*Xrep	*	*
=26	=26	=26
*rep	*	*
8FF/L	8a\ 8cc\$>	.
8F\ 8A\ 8c\	4aa\ 4ccc\	.
8F\ 8A\ 8c\	.	.
8F\J 8A\ 8c\	8ff\ 8aa\	.
*Xrep	*	*
=27	=27	=27
!!mixed beam:problem
!LO:TX:t=P:problem=mixed beam	!	!
8C/L	16bb-\LL	.
.	16aa\	.
8G\ 8B-\ 8c\	16gg\	.
.	16ff\JJ	.
8G\ 8B-\ 8c\	16ee\LL	.
.	16ff\	.
8G\J 8B-\ 8c\	16gg\	.
.	16ee\JJ	.
=28	=28	=28
8F\L	8a\L 8ff\	.
8C\J	8cc\J 8aa\	.
4FF/	4a\ 4ff\	.
=29:|!|:	=29:|!|:	=29:|!|:
*>D	*>D	*
2r	8cc\L	.
!	!LO:TUP:a	!
.	24cc\L	.
.	24cc\	.
.	24cc\JJ	.
.	8cc\L	.
.	8cc\J	.
=30	=30	=30
8CC/L 8C/	8cc\L 8ee\	.
8CC/J 8C/	8dd\J 8ff\	.
4CC/ 4C/	4ee\ 4gg\	.
=31	=31	=31
2r	8cc\L	.
!	!LO:TUP:a	!
.	24cc\L	.
.	24cc\	.
.	24cc\JJ	.
.	8cc\L	.
.	8cc\J	.
!!LO:PB:g=original
=32	=32	=32
8CC/L 8C/	8ee\L 8ccc\	.
8CC/J 8C/	8gg\J 8eee\	.
4CC/ 4C/	4ee\ 4ccc\	.
=33	=33	=33
8G\L	8gg\L$>	.
8d\ 8f\	8gg\	.
8d\ 8f\	8aa\	.
8d\J 8f\	8bbn\J	.
=34	=34	=34
8G\L	8ccc\L$>	.
8c\ 8e\	16eee\L	.
.	16ddd\JJ	.
8c\ 8e\	16ccc\LL	.
!	!LO:SIC:v:s:t=16bbn	!
.	16bb-\	.
8c\J 8e\	16aa\	.
.	16gg\JJ	.
=35	=35	=35
8G\L	8gg\L$>	.
8d\ 8f\	8gg\	.
8d\ 8f\	8aa\	.
!	!LO:SIC:v:s:t=8bbn	!
8d\J 8f\	8bb-\J	.
=36	=36	=36
8c\L 8e\	8ccc\L	.
8c\J 8e\	8eee\J	.
4c\ 4e\	4ccc\	.
*clefG2	*	*
=37	=37	=37
4c/	8gg\L 8bb-X\	.
.	16gg\L 16bb-\	.
.	16aa\JJ 16ccc\	.
4c/	8bb-\L 8ddd\	.
.	16bb-\L 16ddd\	.
.	16aa\JJ 16ccc\	.
=38	=38	=38
4c/	8gg\L 8bb-X\	.
.	16gg\L 16bb-\	.
.	16aa\JJ 16ccc\	.
4c/	8ee\L 8gg\	.
.	16ee\L 16gg\	.
.	16dd\JJ 16ff\	.
=39	=39	=39
4c/	16cc\LL 16ee\	.
.	16dd\ 16ff\	.
.	16cc\ 16ee\	.
.	16dd\JJ 16ff\	.
4r	8ee\L 8gg\	.
.	8dd\J 8ff\	.
=40	=40	=40
2r	8cc/L 8ee/	.
.	8b-/ 8dd/	.
.	8a/ 8cc/	.
.	8g/J 8b-/	.
==	==	==
*-	*-	*-
!!!system-decoration: [{g1}]
!!!RDF**kern: > = above
!!!RDF**kern: < = below
!!!ENC: Andrzej Kubiczek
!!!END: 2020-06-18
!!!EED: Jędrzej Mróz
!!!EEV: 2022-01-05
